X:1
T: May Yarker's Strathspey
C:Muriel A Johnstone
R:Strathspey
%Q: 129
K:G
M:4/4
L:1/16
|:DC|B,3D B3G c3A d3B|ee3 a3g fd3 d3F|g3d B3G ce3 d3D|EE3 A3G FGFE DEDC|
B,D3 B3G c3A d3B|ee3 a3g fd3 d2ef|g3B ce3 d3G Ec3|B3D BAGF G4 G2ga|
b3g fa3 g3d gfed|ca3 Bg3 A2GA B3A|G3F EG3 ((3Ddc) ((3Bcd) |eA3 A3G ((3FGA) A2ga|
b3f fa3 g3d gfed|ca3 Bg3 A2GA B3A|GB3 g3f ed3 d3c|B3D BAGF G6:|
